html/app/assets/img/ui/instagram.svg

<svg fill="none" height="24" viewBox="0 0 24 24" width="24" xmlns="http://www.w3.org/2000/svg"><path d="m12 2.982c2.937 0 3.285.011 4.445.064.6974.00842 1.3881.13662 2.042.379.4779.17635.9101.45758 1.265.823.3654.35486.6467.78713.823 1.265.2424.65393.3706 1.34465.379 2.042.053 1.16.064 1.508.064 4.445s-.011 3.285-.064 4.445c-.0084.6974-.1366 1.3881-.379 2.042-.183.4745-.4633.9054-.823 1.265-.3596.3597-.7905.64-1.265.823-.6539.2424-1.3446.3706-2.042.379-1.16.053-1.508.064-4.445.064s-3.285-.011-4.445-.064c-.69769-.0083-1.38876-.1365-2.043-.379-.47751-.1765-.90942-.4577-1.264-.823-.36542-.3549-.64665-.7871-.823-1.265-.24238-.6539-.37058-1.3446-.379-2.042-.053-1.16-.064-1.508-.064-4.445s.011-3.285.064-4.445c.00842-.69735.13662-1.38807.379-2.042.17635-.47787.45758-.91014.823-1.265.35486-.36542.78713-.64665 1.265-.823.65393-.24238 1.34465-.37058 2.042-.379 1.16-.053 1.508-.064 4.445-.064zm0-1.982c-2.987 0-3.362.013-4.535.066-.91248.0182-1.81528.19099-2.67.511-.73433.27648-1.39948.7099-1.949 1.27-.55962.54933-.99269 1.21411-1.269 1.948-.31967.85478-.49212 1.75757-.51 2.67-.055 1.173-.067 1.548-.067 4.535s.013 3.362.066 4.535c.0182.9125.19099 1.8153.511 2.67.27648.7343.7099 1.3995 1.27 1.949.54933.5596 1.21411.9927 1.948 1.269.85478.3197 1.75757.4921 2.67.51 1.173.055 1.548.067 4.535.067s3.362-.013 4.535-.066c.9125-.0182 1.8153-.191 2.67-.511.731-.2826 1.3948-.7149 1.949-1.269.5541-.5542.9864-1.218 1.269-1.949.3197-.8548.4921-1.7576.51-2.67.055-1.173.067-1.548.067-4.535s-.013-3.362-.066-4.535c-.0182-.91248-.191-1.81528-.511-2.67-.2765-.73433-.7099-1.39948-1.27-1.949-.5493-.55962-1.2141-.99269-1.948-1.269-.8548-.31967-1.7576-.49212-2.67-.51-1.173-.055-1.548-.067-4.535-.067zm0 5.351c-1.1173 0-2.20944.33131-3.13842.95203-.92897.62072-1.65302 1.50297-2.08058 2.53519-.42755 1.03218-.53942 2.16808-.32146 3.26388.21797 1.0958.75599 2.1023 1.54601 2.8923.79003.7901 1.79659 1.3281 2.89235 1.5461 1.0958.2179 2.2317.1061 3.2639-.3215s1.9145-1.1516 2.5352-2.0806.952-2.0211.952-3.1384c0-1.4982-.5952-2.93505-1.6546-3.99445-1.0593-1.05939-2.4962-1.65455-3.9944-1.65455zm0 9.316c-.7253 0-1.4342-.2151-2.03728-.618-.60303-.4029-1.07304-.9756-1.35059-1.6457-.27754-.6701-.35016-1.4074-.20867-2.1187s.49074-1.36472 1.00358-1.87756 1.16626-.86209 1.87756-1.00358 1.4486-.06887 2.1187.20867c.6701.27755 1.2428.74756 1.6457 1.35059.4029.60308.618 1.31198.618 2.03728 0 .9725-.3863 1.9053-1.074 2.593s-1.6205 1.074-2.593 1.074zm5.872-10.859c-.2611 0-.5163.07742-.7334.22246-.217.14504-.3862.3512-.4861.5924s-.1261.5066-.0751.76266c.0509.25605.1766.49126.3612.67586.1846.18461.4198.31032.6759.36126.256.05093.5214.02479.7626-.07512s.4474-.26909.5924-.48617c.1451-.21707.2225-.47228.2225-.73335 0-.35009-.1391-.68583-.3866-.93338-.2476-.24755-.5833-.38662-.9334-.38662z" fill="#f6f6f6" opacity=".8"/></svg>

<svg width="24" height="24" viewBox="0 0 24 24" fill="none" xmlns="http://www.w3.org/2000/svg">
<g opacity="0.8">
<path d="M12 2.982C14.937 2.982 15.285 2.993 16.445 3.046C17.1424 3.05442 17.8331 3.18262 18.487 3.425C18.9649 3.60135 19.3971 3.88258 19.752 4.248C20.1174 4.60286 20.3987 5.03513 20.575 5.513C20.8174 6.16693 20.9456 6.85765 20.954 7.555C21.007 8.715 21.018 9.063 21.018 12C21.018 14.937 21.007 15.285 20.954 16.445C20.9456 17.1424 20.8174 17.8331 20.575 18.487C20.392 18.9615 20.1117 19.3924 19.752 19.752C19.3924 20.1117 18.9615 20.392 18.487 20.575C17.8331 20.8174 17.1424 20.9456 16.445 20.954C15.285 21.007 14.937 21.018 12 21.018C9.063 21.018 8.715 21.007 7.555 20.954C6.85731 20.9457 6.16624 20.8175 5.512 20.575C5.03449 20.3985 4.60258 20.1173 4.248 19.752C3.88258 19.3971 3.60135 18.9649 3.425 18.487C3.18262 17.8331 3.05442 17.1424 3.046 16.445C2.993 15.285 2.982 14.937 2.982 12C2.982 9.063 2.993 8.715 3.046 7.555C3.05442 6.85765 3.18262 6.16693 3.425 5.513C3.60135 5.03513 3.88258 4.60286 4.248 4.248C4.60286 3.88258 5.03513 3.60135 5.513 3.425C6.16693 3.18262 6.85765 3.05442 7.555 3.046C8.715 2.993 9.063 2.982 12 2.982ZM12 1C9.013 1 8.638 1.013 7.465 1.066C6.55252 1.0842 5.64972 1.25699 4.795 1.577C4.06067 1.85348 3.39552 2.2869 2.846 2.847C2.28638 3.39633 1.85331 4.06111 1.577 4.795C1.25733 5.64978 1.08488 6.55257 1.067 7.465C1.012 8.638 1 9.013 1 12C1 14.987 1.013 15.362 1.066 16.535C1.0842 17.4475 1.25699 18.3503 1.577 19.205C1.85348 19.9393 2.2869 20.6045 2.847 21.154C3.39633 21.7136 4.06111 22.1467 4.795 22.423C5.64978 22.7427 6.55257 22.9151 7.465 22.933C8.638 22.988 9.013 23 12 23C14.987 23 15.362 22.987 16.535 22.934C17.4475 22.9158 18.3503 22.743 19.205 22.423C19.936 22.1404 20.5998 21.7081 21.154 21.154C21.7081 20.5998 22.1404 19.936 22.423 19.205C22.7427 18.3502 22.9151 17.4474 22.933 16.535C22.988 15.362 23 14.987 23 12C23 9.013 22.987 8.638 22.934 7.465C22.9158 6.55252 22.743 5.64972 22.423 4.795C22.1465 4.06067 21.7131 3.39552 21.153 2.846C20.6037 2.28638 19.9389 1.85331 19.205 1.577C18.3502 1.25733 17.4474 1.08488 16.535 1.067C15.362 1.012 14.987 1 12 1ZM12 6.351C10.8827 6.351 9.79056 6.68231 8.86158 7.30303C7.93261 7.92375 7.20856 8.806 6.781 9.83822C6.35345 10.8704 6.24158 12.0063 6.45954 13.1021C6.67751 14.1979 7.21553 15.2044 8.00555 15.9944C8.79558 16.7845 9.80214 17.3225 10.8979 17.5405C11.9937 17.7584 13.1296 17.6466 14.1618 17.219C15.194 16.7914 16.0763 16.0674 16.697 15.1384C17.3177 14.2094 17.649 13.1173 17.649 12C17.649 10.5018 17.0538 9.06495 15.9944 8.00555C14.9351 6.94616 13.4982 6.351 12 6.351ZM12 15.667C11.2747 15.667 10.5658 15.4519 9.96272 15.049C9.35969 14.6461 8.88968 14.0734 8.61213 13.4033C8.33459 12.7332 8.26197 11.9959 8.40346 11.2846C8.54495 10.5733 8.8942 9.91988 9.40704 9.40704C9.91988 8.8942 10.5733 8.54495 11.2846 8.40346C11.9959 8.26197 12.7332 8.33459 13.4033 8.61213C14.0734 8.88968 14.6461 9.35969 15.049 9.96272C15.4519 10.5658 15.667 11.2747 15.667 12C15.667 12.9725 15.2807 13.9053 14.593 14.593C13.9053 15.2807 12.9725 15.667 12 15.667ZM17.872 4.808C17.6109 4.808 17.3557 4.88542 17.1386 5.03046C16.9216 5.1755 16.7524 5.38166 16.6525 5.62286C16.5526 5.86406 16.5264 6.12946 16.5774 6.38552C16.6283 6.64157 16.754 6.87678 16.9386 7.06138C17.1232 7.24599 17.3584 7.3717 17.6145 7.42264C17.8705 7.47357 18.1359 7.44743 18.3771 7.34752C18.6183 7.24761 18.8245 7.07843 18.9695 6.86135C19.1146 6.64428 19.192 6.38907 19.192 6.128C19.192 5.77791 19.0529 5.44217 18.8054 5.19462C18.5578 4.94707 18.2221 4.808 17.872 4.808Z" fill="#F6F6F6"/>
</g>
</svg>
